X: 1
T: Colville's Rant
M: 4/4
L: 1/8
R: reel
K: Amix
|:a|cAeA cAAg|BGDG BGGa|cAeA cAAe|dBGB eAA:|
|:B|A2 ag aeef|gage dBGB|A2 ag aeef|gedB BAGB|
A2 ag aeef|gage dBGB|ABcd ec~c2|dBgB BAA:|
